X:1
T:Title
%%score { 1 | 2 }
L:1/8
M:3/4
K:G
V:1 treble nm="Grand Piano"
V:2 bass 
V:1
 z2 z2[Q:1/4=114] [DB]>[CA] | [B,G]2 [DF]2 [CE]2 | [CE]2 [B,D]2 [B,D]>[B,D] | [DG]2 [DG]2 A2 | %4
 B4 B>B | A2 B2 c2 | d2 B2 A>A | G2 [^CA]2 [CB]2 | A4 B>A | [B,G]2 [DF]2 [CE]2 | %10
 [B,E]2 [B,D]2 [B,D]>[B,D] | [DG]2 [DG]2 A2 | B4 c>c | d2 d2 d2 | [Ed]2 [Ec]2 [EA]>[EA] | %15
 G2 B2 A2 |[M:2/4] [B,G]4 |[M:1/4] [Gd]>[Gd] |[M:3/4] [Fd]2 [FA]2 [GB]2 | [Ac]2 [GB]2 [FA]2 | %20
 B2 G2 c2 | B4 d>d | [Fd]2 [FA]2 [GB]2 | [Ac]2 [GB]2 [CFA]2 | [B,EG]2 [^CGA]2 [CGB]2 | %25
 [DFA]4 [DB]>[CA] | [B,G]2 [DF]2 [CE]2 | [CE]2 [B,D]2 [B,D]>[B,D] | [DG]2 [DG]2 A2 | B4 c>c | %30
 d2 d2 d2 | [Ed]2 [Ec]2 [EA]>[EA] | G2 B2 A2 |[M:2/4] [B,G]4 |] %34
V:2
 z2 z2 [G,,G,]>[G,,G,] | [G,,G,]2 [G,,G,]2 [G,,G,]2 | [G,,G,]2 [G,,G,]2 [G,,G,]>[G,,G,] | %3
 [B,,G,]2 [B,,G,]2 [D,F,D]2 | [G,D]4 [G,D]>[G,D] | [D,F,D]2 [D,G,D]2 [D,A,D]2 | %6
 [F,B,D]2 [G,D]2 [^D,F,C]>[D,F,C] | [E,G,B,]2 [A,,G,]2 [A,,G,]2 | [D,F,D]4 [D,F,D]>[D,F,C] | %9
 [G,,G,]2 [G,,G,]2 [G,,G,]2 | [G,,G,]2 [G,,G,]2 [G,,G,]>[G,,G,] | [B,,G,]2 [B,,G,]2 [D,F,D]2 | %12
 [G,D]4 [G,A,D]>[G,A,D] | [G,B,G]2 [G,B,F]2 [G,B,=F]2 | [C,G,]2 [C,A,]2 [C,C]>[C,C] | %15
 [D,B,D]2 [D,E,D]2 [D,F,C]2 |[M:2/4] [G,,G,]4 |[M:1/4] [G,B,]>[G,B,] | %18
[M:3/4] [D,A,]2 [D,D]2 [D,D]2 | [D,D]2 [D,D]2 [D,D]2 | [G,DG]2 [G,B,]2 [G,EG]2 | %21
 [G,DG]4 [G,B,G]>[G,B,G] | [D,A,]2 [D,D]2 [D,D]2 | [D,D]2 [D,D]2 ^D,2 | E,2 A,,2 A,,2 | %25
 D,4 [D,F,]>[D,F,] | [G,,G,]2 [G,,G,]2 [G,,G,]2 | [G,,G,]2 [G,,G,]2 [G,,G,]>[G,,G,] | %28
 [B,,G,]2 [B,,G,]2 [D,F,D]2 | [G,D]4 [G,A,D]>[G,A,D] | [G,B,G]2 [G,B,F]2 [G,B,=F]2 | %31
 [C,G,]2 [C,G,]2 [C,C]>[C,C] | [D,B,D]2 [D,E,D]2 [D,F,C]2 |[M:2/4] [G,,G,]4 |] %34

